Papirus/64x64/apps/citra.svg

<svg xmlns="http://www.w3.org/2000/svg" width="64" height="64" version="1.1">
 <path style="opacity:0.2" d="M 32,5 A 28,28 0 0 0 4,33 28,28 0 0 0 32,61 28,28 0 0 0 60,33 28,28 0 0 0 32,5 Z"/>
 <path style="fill:#ff9426" d="M 32,4 A 28,28 0 0 0 4,32 28,28 0 0 0 32,60 28,28 0 0 0 60,32 28,28 0 0 0 32,4 Z"/>
 <circle style="opacity:0.2" cx="32" cy="33" r="24"/>
 <circle style="fill:#ffffff" cx="32" cy="32" r="24"/>
 <path style="fill:#d2e015" d="m 31.943872,12.000202 c -2.49467,-0.0119 -4.820954,0.491024 -5.943826,1.03908 0.0015,0.0081 -0.0016,-0.04748 -4.6e-5,-0.03928 0.190512,0.393723 6,15 6,15 l 6,-15 c -1.19086,-0.547707 -3.56385,-0.987901 -6.056154,-0.999796 z"/>
 <path style="fill:#c74a30" d="m 31.943872,51.99979 c -2.49467,0.012 -4.820954,-0.491024 -5.943826,-1.03908 0.0015,-0.008 -0.0016,0.04748 -4.6e-5,0.03928 0.19052,-0.393722 6,-15 6,-15 l 6,15 c -1.19086,0.547708 -3.56385,0.987902 -6.056154,0.999796 z"/>
 <path style="fill:#ff769d" d="m 51.99957,31.944094 c 0.012,-2.49467 -0.491024,-4.820954 -1.03908,-5.943826 -0.008,0.0015 0.04748,-0.0016 0.03928,-4.6e-5 -0.393724,0.19052 -15,6 -15,6 l 15,6 c 0.547706,-1.19086 0.987902,-3.56385 0.999796,-6.056154 z"/>
 <path style="fill:#f9a726" d="m 11.999982,31.944094 c -0.012,-2.49467 0.491024,-4.820954 1.03908,-5.943826 0.008,0.0015 -0.04748,-0.0016 -0.03928,-4.6e-5 0.393722,0.19052 15,6 15,6 l -15,6 c -0.547708,-1.19086 -0.987902,-3.56385 -0.999796,-6.056154 z"/>
 <path style="fill:#89dc3c" d="m 46.102236,17.818477 c -1.755582,-1.772412 -3.756136,-3.061723 -4.93766,-3.468179 -0.0046,0.0068 0.03244,-0.03471 0.02774,-0.02781 -0.1437,0.413117 -6.36396,14.849244 -6.36396,14.849244 L 49.677598,22.80777 C 49.222824,21.578418 47.85613,19.589196 46.102216,17.81846 Z"/>
 <path style="fill:#dc6e33" d="m 17.818256,46.102458 c -1.772483,-1.755514 -3.061722,-3.756136 -3.468179,-4.93766 0.0067,-0.0046 -0.03471,0.03244 -0.02781,0.02774 0.413122,-0.14368 14.849243,-6.363962 14.849243,-6.363962 L 22.80755,49.67782 c -1.229352,-0.454776 -3.218574,-1.82147 -4.989309,-3.575384 z"/>
 <path style="fill:#dd4f3c" d="m 46.181296,46.102458 c 1.772412,-1.755582 3.061722,-3.756136 3.468178,-4.93766 -0.0068,-0.0046 0.03472,0.03244 0.02782,0.02774 -0.413118,-0.1437 -14.849242,-6.36396 -14.849242,-6.36396 l 6.36396,14.849242 c 1.229352,-0.454778 3.218574,-1.821472 4.98931,-3.575386 z"/>
 <path style="fill:#f8e12e" d="m 17.897315,17.818478 c 1.755513,-1.772483 3.756137,-3.061722 4.937661,-3.468179 0.0046,0.0067 -0.03244,-0.03471 -0.02774,-0.02781 0.14368,0.413122 6.36396,14.849243 6.36396,14.849243 L 14.321952,22.807772 c 0.454777,-1.229352 1.82147,-3.218574 3.575385,-4.989309 z"/>
 <path style="opacity:0.2;fill:#ffffff" d="M 32 4 A 28 28 0 0 0 4 32 A 28 28 0 0 0 4.0214844 32.40625 A 28 28 0 0 1 32 5 A 28 28 0 0 1 59.978516 32.578125 A 28 28 0 0 0 60 32 A 28 28 0 0 0 32 4 z"/>
</svg>

<svg xmlns="http://www.w3.org/2000/svg" width="64" height="64" version="1.1">
 <path style="opacity:0.2" d="M 32,5 A 28,28 0 0 0 4,33 28,28 0 0 0 32,61 28,28 0 0 0 60,33 28,28 0 0 0 32,5 Z"/>
 <path style="fill:#ff9426" d="M 32,4 A 28,28 0 0 0 4,32 28,28 0 0 0 32,60 28,28 0 0 0 60,32 28,28 0 0 0 32,4 Z"/>
 <circle style="opacity:0.2" cx="32" cy="33" r="24"/>
 <circle style="fill:#ffffff" cx="32" cy="32" r="24"/>
 <path style="fill:#f8e12e" d="M 46.102,17.818 C 44.347,16.046 42.346,14.757 41.165,14.35 41.16,14.357 41.197,14.316 41.192,14.322 41.049,14.736 34.828,29.172 34.828,29.172 L 49.678,22.808 C 49.223,21.578 47.856,19.589 46.102,17.818 Z M 31.944,12 C 29.449,11.988 27.123,12.491 26,13.039 26.002,13.047 25.998,12.992 26,13 26.191,13.394 32,28 32,28 L 38,13 C 36.809,12.452 34.436,12.012 31.944,12 Z"/>
 <path style="fill:#f9a726" d="M 17.897,17.818 C 19.653,16.046 21.653,14.757 22.835,14.35 22.84,14.357 22.803,14.316 22.807,14.322 22.951,14.736 29.171,29.172 29.171,29.172 L 14.322,22.808 C 14.777,21.578 16.143,19.589 17.897,17.818 Z M 46.181,46.102 C 47.954,44.347 49.243,42.346 49.649,41.165 49.643,41.16 49.684,41.197 49.677,41.193 49.264,41.049 34.828,34.829 34.828,34.829 L 41.192,49.678 C 42.421,49.223 44.411,47.856 46.181,46.102 Z M 17.818,46.102 C 16.046,44.347 14.757,42.346 14.35,41.165 14.357,41.16 14.315,41.197 14.322,41.193 14.735,41.049 29.172,34.829 29.172,34.829 L 22.808,49.678 C 21.578,49.223 19.589,47.856 17.818,46.102 Z M 12,31.944 C 11.988,29.449 12.491,27.123 13.039,26 13.047,26.002 12.992,25.999 13,26 13.394,26.191 28,32 28,32 L 13,38 C 12.452,36.809 12.012,34.436 12,31.944 Z M 52,31.944 C 52.012,29.449 51.509,27.123 50.96,26 50.952,26.002 51.008,25.999 51,26 50.606,26.191 36,32 36,32 L 51,38 C 51.547,36.809 51.988,34.436 52,31.944 Z M 31.944,52 C 29.449,52.012 27.123,51.509 26,50.961 26.002,50.953 25.998,51.008 26,51 26.191,50.606 32,36 32,36 L 38,51 C 36.809,51.548 34.436,51.988 31.944,52 Z"/>
 <path style="opacity:0.2;fill:#ffffff" d="M 32 4 A 28 28 0 0 0 4 32 A 28 28 0 0 0 4.0214844 32.40625 A 28 28 0 0 1 32 5 A 28 28 0 0 1 59.978516 32.578125 A 28 28 0 0 0 60 32 A 28 28 0 0 0 32 4 z"/>
</svg>
